X:1
T:Title
%%score { ( 1 3 4 ) | ( 2 5 6 ) }
L:1/8
M:4/4
K:Eb
V:1 treble nm="Grand Piano"
V:3 treble 
V:4 treble 
V:2 bass 
V:5 bass 
V:6 bass 
V:1
 z4 z2[Q:1/4=100] B>A | G>G G>G G>F E>G | [GB]>[GB] [_Gc]>[G=A] [=GB]2 [F_A]>[EG] | %3
 [DF]>[DF] [DF]>[EG] [FA]>[FA] [=EG]>[FA] | [Bd]>[Ac] [GB]>[FA] [EG]2 [EG]>[GB] | %5
 [Ge]>[Ge] [Ae]>e [Ge]>[EGB] [E_G=A]>[E=GB] | c>c c>c [=Ae]2 d>c | %7
 [GB]>[GB] [_G=A]>[=GB] [_Ad]>[Ad] [Ac]>[Ad] |[M:25/32] z25/4 |[M:5/16] B3/4 z/4 z/ z | %10
[M:4/4] G4 (5:4:5G2 E/ G/-G3/2F/ | (5:4:5z2 B,/ C/-C3/2C/ z2 (3:2:2E2 F | %12
 (5:4:5G2 [GB]/ [GB]/-[GB]3/2[Ac]/ [GB]3/4 z/4 z (3:2:2[G,CE]2 [CF] | %13
[M:35/32] G3/2-G/4- G4- G/ z/4 _G3/2-G/4 z/ |[M:4/4] B4 z4 |[M:9/8] e6- e z z | %16
[M:4/4] [Ee]>[GB] [_G=A]>[=GB] [Ad]<[Ad] [Ac]>[Ad] |[M:3/4] e6 |] %18
V:2
 z4 z2 [E,G,E]>[E,CE] | [E,B,E]>[E,B,E] [E,B,E]>[E,B,E] [E,B,E]>[E,A,D] [E,G,]>[E,B,E] | %2
 [E,E]>[E,E] [E,E]>[E,E] [E,E]2 [D,B,]>[E,B,] | %3
 [B,,B,]>[B,,B,] [B,,B,]>[B,,B,] [B,,B,]>[B,,B,] [B,,B,]>[B,,B,] | %4
 [B,,B,]>[B,,B,] [B,,B,]>[B,,B,] [E,B,]2 [E,B,]>[E,B,] | %5
 [E,B,]>[E,B,] [E,C]>[E,C] [E,B,]>C, C,>C, | [A,EA]>[A,EA] [A,CA]>[A,CA] [F,C]2 [B,A]>[B,DA] | %7
 [E,E]>[E,E] [E,E]>[E,B,] [B,,B,]>[B,,B,] [B,,B,]>[B,,B,] |[M:25/32] z25/4 | %9
[M:5/16] G,3/4 z/4 z/ z |[M:4/4] B,4 (5:4:5E,2 G,/ B,/-B,3/2A,/ | %11
 (5:4:5G,2 [E,G,]/ [E,A,]/-[E,A,]3/2[E,A,]/ z2 (3:2:2[E,G,B,]2 [E,A,B,] | %12
 (5:4:5[E,B,E]2 [E,E]/ [E,E]/-[E,E]3/2[E,E]/ [E,E]3/4 z/4 z (3:2:2C,2 A,, | %13
[M:35/32] z3 z/ (3:2:4C3/4-C/8=B,3/2-B,/4-B, z3/2 z/4 _B,3/4 |[M:4/4] D4 z4 | %15
[M:9/8] C>[C,C][C,C]- [C,C]/[C,E,]/ [=B,,_G,]2- [B,,G,][B,,G,]>[B,,G,] | %16
[M:4/4] [B,,G,]>[B,,B,] [B,,B,]>[B,,B,] [B,,B,]<[B,,B,] [B,,B,]>[B,,B,] | %17
[M:3/4] [E,B,]2 [E,C]>[E,=A,] [E,B,]2 |] %18
V:3
 x8 | x8 | x8 | x8 | x8 | x8 | x8 | x8 |[M:25/32] [Ge]>[B,E][EG]3/2.[A,DF] z3/2 z/4 | %9
[M:5/16] z/ z/ z B/ |[M:4/4] (5:4:5z2 E/ E/-E3/2E/ z4 | E4 B,2- B,/4 z/4 z/ z | %12
 z4 z/ [B,EG]3/2- [B,EG]/4 z/4 z/ z |[M:35/32] z3 z/ (3:2:4E3/4-E/8D3/2-D/4-D z3/2 z/4 =G3/4 | %14
[M:4/4] z z/ A/ A>A A>A G>_G |[M:9/8] z z/ G/G- G/G/ E2- E[Ee]>[Ee] |[M:4/4] x8 | %17
[M:3/4] G2 A>_G =G2 |] %18
V:4
 x8 | x8 | x8 | x8 | x8 | x8 | x8 | x8 |[M:25/32] z z/4 z z/4 z3/2 [G,E]2- [G,E]/4- | %9
[M:5/16] [G,E]/4 z/4 =A/-A-A/4 z/4 |[M:4/4] x8 | x8 | x8 | %13
[M:35/32] [=B,D]2- [B,DE-]/4E3/2 z2 z/4 .G2 z3/4 |[M:4/4] x8 |[M:9/8] x9 |[M:4/4] x8 |[M:3/4] x6 |] %18
V:5
 x8 | x8 | x8 | x8 | x8 | x8 | x8 | x8 |[M:25/32] [E,B,]>G,B,3/2.B,, z3/2 z/4 | %9
[M:5/16] z/ z/ z G,/ |[M:4/4] (5:4:5z2 E,/ E,/-E,3/2E,/ z4 | z4 [E,G,]2- [E,G,]/4 z/4 z/ z | %12
 z4 z/ E,3/2- E,/4 z/4 z/ z |[M:35/32] z2 C3/2-C/4 z2 z/4 ._B,2 z3/4 | %14
[M:4/4] z z/ B,,/ B,,>B,, B,,>C B,>=A, |[M:9/8] x9 |[M:4/4] x8 |[M:3/4] x6 |] %18
V:6
 x8 | x8 | x8 | x8 | x8 | x8 | x8 | x8 |[M:25/32] z z/4 z z/4 z3/2 E,2- E,/4- | %9
[M:5/16] E,/4 z/4 F,/-F,-F,/4 z/4 |[M:4/4] x8 | x8 | x8 | %13
[M:35/32] G,,3/2-G,,/4- G,,4- G,,/ z/4 =A,3/2-A,/4 z/ |[M:4/4] x8 |[M:9/8] x9 |[M:4/4] x8 | %17
[M:3/4] x6 |] %18

